!!!!SEGMENT: pl-wtm--r-1404--004-pc1_stefani-jozef--adagio-cracovienne-pc1.krn
!!!cenid: 18xx:2422b
!!!COM: Stefani, Józef
!!!COM-rismID: pe30024097
!!!CDT: 1800/04/16-1876/03/19
!!!CNT: Polish
!!!OTL: Adagio-Cracovienne [post correcturam]
!!!PDT: 1842
!!!AGN: Secular; Krakowiak
!!!SMS-siglum: PL-Wtm
!!!SMS-shelfmark: R 1404
!!!SMS-shelfwork: 004 W
!!!SMS-variant:
!!!SMS-altvar:
!!!NIFC-rismSourceID: 1001117925
!!!NIFC-rismChildID: 1001117934
!!!NIFC-islandoraID: pl-wtm:25463
!!!URL-pdf-islandora: https://repozytorium.nifc.pl/islandora/object/pl-wtm%3A25463/datastream/PDF/view
!!!URL-scan: https://polish.musicsources.pl/pl/lokalizacje/galeria/rekopisy/6234 @EN{Scan on Polish Music Sources Website} @PL{Skany w portalu Dziedzictwo Muzyki Polskiej w otwartym dostępie}
!!!ONB-nifc: UWAGA: w zbiorze: 1. Dance Cracovienne (skan 0003), 2. Danse (bez tytułu, skan 0004), 3. Mazur zgoda (0006-0007, do Adagio), 4. Adagio-Cracovienne (skan 0007-0008)
!!!AIN: 1 forte
!!!key:
**kern	**kern	**dynam
*part1	*part1	*part1
*staff2	*staff1	*
*Iforte	*Iforte	*
*I"Piano-forte	*I"Piano-forte	*
*clefF4	*clefG2	*
*k[b-e-a-]	*k[b-e-a-]	*
*c:	*c:	*
*M4/4	*M4/4	*
*met(c)	*met(c)	*
*>[A,B,C,D,E,E,B,C,D,E,E]	*>[A,B,C,D,E,E,B,C,D,E,E]	*
*>A	*>A	*
!	!	!LO:DY:rj
16c 16G 16E- 16C\	16ccc 16ee- 16cc\	f
=	=	=
*all\right	*all\right	*
*2\right	*2\right	*
2.c 2.G 2.E- 2.C;\	2.ccc 2.ee- 2.cc;\	.
!LO:TX:a:t=P:problem=w źródle znak segno na całej kresce taktowej	!LO:TX:a:t=P:problem=w źródle znak segno na całej kresce taktowej	!
!LO:TX:a:t=[segno]	!LO:TX:a:t=[segno]	!
=1||	=1||	=1||
*>B	*>B	*
!!!OMD: Adagio.
!	!	!LO:DY:rj
4r	8.ccL 8.e-\	p
.	16ee-Jk 16cc\	.
=2	=2	=2
4C\	(>4.gg 4.ee-\	.
4c\	.	.
.	8ff#X 8dd\)	.
4C\	(>8.ggL 8.ee-\	.
.	16ff#K 16dd\)	.
4c\	(>8.gg 8.ee-\	.
.	16ff#Jk 16dd\)	.
=3	=3	=3
4C\	(>8.ggL 8.ee-\	.
.	16ee-Jk 16cc\)	.
4c\	4cc 4e-'/	.
4C\	4r	.
4r	(>8.bnL 8.g\	.
.	16ddJk 16b\	.
!!LO:LB:g=original
=4	=4	=4
!	!LO:TX:a:t=P:problem=w źródle brak zakończenia łuku	!
4GG/	4.ff 4.dd\)	.
4G\	.	.
.	8dd 8bn\	.
4GG/	(>8ffL 8dd\	.
.	8ee- 8cc\	.
4G\	8dd 8f\	.
.	8ccJ 8e-\)	.
=5	=5	=5
4GG/	8.ccL (<8.e-/	.
.	16bnJk 16d/)	.
4G\	4b 4d/	.
4GG/	4r	.
4r	(>8.ccL 8.e-\	.
.	16ee-Jk 16cc\)	.
=6	=6	=6
4C/	(>4.gg 4.ee-\	.
4c\	.	.
.	8ff#X 8dd\)	.
4C/	(>8.ggL 8.ee-\	.
.	16ff#K 16dd\)	.
4c\	(>8.gg 8.ee-\	.
.	16ff#Jk 16dd\)	.
=7	=7	=7
4C/	(>8.ggL 8.ee-\	.
.	16ee-Jk 16cc\)	.
4c\	4cc 4e-/	.
4C/	4r	.
4r	8.ccL 8.e-/	.
.	16ee-Jk 16g/	.
!!LO:LB:g=original
=8	=8	=8
4F 4FF/	(>8ee-L 8g\	.
.	16ddJk 16f\)	.
.	16r	.
4F 4FF/	(>8ffL 8a-\	.
.	16ddJk 16f\)	.
.	16r	.
4G 4GG/	(<8ddL 8f/	.
.	16ccJk 16e-/)	.
.	16r	.
4G 4GG/	(<8ccL 8e-/	.
.	16bnJk 16d/)	.
.	16r	.
=9	=9	=9
4C/	(<8.ddL 8.f/	.
.	16ccJk 16e-/)	.
4c\	4cc 4e-/	.
4C/	2r;>	.
4r;>	.	.
==10	==10	==10
*>C	*>C	*
*k[bnenanf#]	*k[bnenanf#]	*
*M2/4	*M2/4	*
!!!OMD: Allegro.
!	!LO:TX:a:i:t=Cracovienne	!
!	!	!LO:DY:rj
8G 8GG\	8bL 8g'\	f
!	!	!LO:DY:rj
8dL 8B 8G\	8dd'\J	p
.	(<8qee/	.
8d 8B 8G\	16dd'\LL)	.
.	16cc#X'\J	.
8dJ 8B 8G\	8dd'\J	.
!!LO:LB:g=original
=11	=11	=11
8D\L	(>8ccn\L	.
8d 8A 8F#\	8a\)	.
8d 8A 8F#\	8a'\	.
8dJ 8A 8F#\	8a'\J	.
=12	=12	=12
*rep	*	*
8D\L	8a\L	.
8d 8A 8F#\	8cc\J	.
.	(<8qdd/	.
8d 8A 8F#\	16cc\LL)	.
.	16b'\J	.
8dJ 8A 8F#\	8cc'\J	.
*Xrep	*	*
=13	=13	=13
.	(<8qcc/	.
4GG/	4b/)	.
4d 4B 4G\	4g/	.
=14	=14	=14
!	!	!LO:DY:rj
8G 8GG\	8bL 8g 8d/	f
!	!	!LO:DY:rj
8dL 8B 8G\	8dd/J	p
.	(<8qee/	.
8d 8B 8G\	16dd\LL)	.
.	16cc#X'\J	.
8dJ 8B 8G\	8dd'\J	.
=15	=15	=15
8D\L	(<8ccn/L	.
8d 8A 8F#\	8a/)	.
8d 8A 8F#\	8a'/	.
8dJ 8A 8F#\	8a'/J	.
=16	=16	=16
*rep	*	*
8D\L	8a'/L	.
8d 8A 8F#\	8cc'/J	.
.	(<8qdd/	.
8d 8A 8F#\	16cc/LL)	.
.	16b'/J	.
8dJ 8A 8F#\	8cc'/J	.
*Xrep	*	*
=17	=17	=17
.	(<8qcc/	.
4GG/	4b/)	.
4d 4B 4G\	4g'/	.
!!LO:LB:g=original
=18	=18	=18
8D\L	(>8a\L	.
8d 8A 8F#\	8cc\)	.
8d 8A 8F#\	8cc'\	.
8dJ 8A 8F#\	8cc'\J	.
=19	=19	=19
*^	*	*
8GG/	8GG\	8b'\L	.
8dL 8B 8G\	4.ryy	8dd'\J	.
.	.	(>8qee/	.
8d 8B 8G\	.	8dd\L	.
8dJ 8B 8G\	.	16cc\L	.
.	.	16b\JJ)	.
*v	*v	*	*
=20	=20	=20
8D\L	(>8a\L	.
8d 8A 8F#\	8cc\)	.
8d 8A 8F#\	8cc'\	.
8dJ 8A 8F#\	8cc'\J	.
=21	=21	=21
!LO:TX:a:t=P:problem=mixed beam	!	!
8GG/L	(>32b\LLL	.
.	32cc\JJ	.
.	8.dd\J)	.
8d\J 8B\ 8G\	.	.
4d 4B 4G\	4dd\	.
=22	=22	=22
8D\L	(>8a\L	.
8d 8A 8F#\	8cc\)	.
8d 8A 8F#\	8cc'\	.
8dJ 8A 8F#\	8cc'\J	.
=23	=23	=23
8GG/	8b\L	.
8dL 8B 8G\	8dd\J	.
.	(>8qee/	.
8d 8B 8G\	8dd\L	.
8dJ 8B 8G\	16cc\L	.
!LO:TX:a:t=P:problem=w źródle znak × zapisany ołówkiem	!	!
!LO:TX:b:t=×:color=grey	!	!
.	16b\JJ)	.
=24	=24	=24
8D\L	8a/L	.
8dJ 8A 8F#\	8cc/	.
8D\L	8a/	.
8cJ 8A\	8f#/J	.
=25	=25	=25
.	(<8qa/	.
4B 4G\	4g/)	.
4d 4B 4G\	4g'/	.
!!LO:LB:g=original
=26||	=26||	=26||
*>D	*>D	*
*k[fn]	*k[fn]	*
!LO:TX:a:t=P:problem=w źródle kasownik "przykluczowy" na wysokości F	!LO:TX:a:t=P:problem=w źródle kasownik "przykluczowy" na wysokości ff	!
!	!	!LO:DY:b:t=for
8C\L	(>16cc\LL	f
.	16dd\	.
8cJ 8G 8E\	16ee\	.
.	16ff#X\JJ	.
!LO:N:color=grey	!	!
!LO:TX:a:t=P:problem=szare nuty dopisane ołówkiem	!	!
8C\LZ	8gg\L)	.
8cJZ 8AZ 8F#X\Z	8ff#'\J	.
=27	=27	=27
!LO:TX:a:t=P:problem=szare nuty dopisane ołówkiem	!	!
8C\LZ	8.gg'\L	.
8cJZ 8GZ 8E\Z	.	.
.	16ee'\Jk	.
*rep	*	*
8C\L	4cc'\	.
8cJ 8G 8E\	.	.
*Xrep	*	*
=28	=28	=28
8C\L	(>16g/LL	.
.	16a/	.
8BJ 8G 8F\	16b/	.
.	16cc/JJ	.
*rep	*	*
8C\L	16dd\LL	.
.	16ee\	.
8BJ 8G 8F#\	16dd\	.
.	16cc#X\JJ)	.
*Xrep	*	*
=29	=29	=29
*rep	*	*
.	(8qee/	.
8C\L	8.dd\L)	.
8BJ 8G 8F#\	.	.
.	16b\Jk|	.
8C\L	4g/|	.
8BJ 8G 8F#\	.	.
*Xrep	*	*
=30	=30	=30
8C\L	(>16cc\LL	.
.	16dd\	.
8cJ 8G 8E\	16ee\	.
.	16ff\JJ	.
*rep	*	*
8C\L	16gg\LL	.
.	16aa\	.
8cJ 8G 8E\	16gg\	.
!LO:TX:a:t=P:problem=w źródle znak × zapisany ołówkiem	!	!
!LO:TX:b:t=×:color=grey	!	!
.	16ff#X\JJ)	.
*Xrep	*	*
=31	=31	=31
*rep	*	*
8C\L	(>16gg\LL	.
.	16ff#X\	.
8cJ 8G 8E\	16gg\	.
.	16ee\JJ	.
8C\L	4cc\)	.
8cJ 8G 8E\	.	.
!	!LO:TX:b:i:t=V&colon; S&colon;	!
*Xrep	*	*
!!LO:PB:g=original
=32	=32	=32
8C\L	16b\LL	.
.	16cc\	.
8BJ 8G 8F\	16dd\	.
.	16ee\JJ	.
.	8qgg/	.
*rep	*	*
8C\L	16ff\LL	.
.	16ee\	.
8BJ 8G 8F#\	16ff\	.
.	16dd\JJ	.
*Xrep	*	*
=33	=33	=33
8C\L	8cc'\L	.
.	(<8qee/	.
8cJ 8G 8E\	16ee\L)	.
.	16dd\JJ	.
8C\	8cc\	.
8r	8r	.
=34!|:	=34!|:	=34!|:
*>E	*>E	*
!	!	!LO:DY:rj
8GG\L	(>8dd^<\L	p
8BJ 8G 8F 8D\	16ff\Jk)	.
.	16r	.
*rep	*	*
8GG\L	(>8dd^<\L	.
8BJ 8G 8F# 8D\	16ff\Jk)	.
.	16r	.
*Xrep	*	*
=35	=35	=35
!	!	!LO:DY:rj
8C\L	(>16ee\LL	f
.	16dd#X\	.
8cJ 8G 8E\	16ee\	.
.	16ff\JJ	.
*rep	*	*
8C\L	16gg\LL	.
.	16ff#X\	.
8cJ 8G 8E\	16gg\	.
.	16ee\JJ)	.
*Xrep	*	*
!!LO:LB:g=original
=36	=36	=36
8GG\L	(>8dd^<\L	.
8BJ 8G 8F 8D\	16ff\Jk)	.
.	16r	.
*rep	*	*
8GG\L	(>8dd^<\L	.
8BJ 8G 8F# 8D\	16ff\Jk)	.
.	16r	.
*Xrep	*	*
=37	=37	=37
!	!	!LO:DY:rj
8C\L	8ee\L	f
8cJ 8G 8E\	8eee\	.
*rep	*	*
8C\L	8ccc'\J	.
8cJ 8G 8E\	8r	.
*Xrep	*	*
=38	=38	=38
*rep	*	*
8C\L	(>16cc\LL	.
.	16dd\	.
8cJ 8G 8E\	16ee\	.
.	16ff#X\JJ	.
8C\L	16gg\LL	.
.	16aa\	.
8cJ 8G 8E\	16gg\	.
.	16ff#\JJ)	.
*Xrep	*	*
=39	=39	=39
*rep	*	*
8C\L	8.gg\L	.
8cJ 8G 8E\	.	.
.	16ee\Jk	.
8C\L	4cc\	.
8cJ 8G 8E\	.	.
*Xrep	*	*
=40	=40	=40
8C\L	(>16b\LL	.
.	16cc\	.
8BJ 8G 8F\	16dd\	.
.	16ee\JJ	.
*rep	*	*
8C\L	16ff\LL	.
.	16ee\	.
8BJ 8G 8F#\	16ff\	.
.	16dd\JJ)	.
*Xrep	*	*
!!LO:LB:g=original
=41	=41	=41
8c 8G 8E 8C\	8cc\	.
8r	8r	.
4c 4G 4E 4C\	4ccc 4ee 4cc\	.
!LO:TX:a:t=P:problem=w źródle znak segno na całej drugiej, dodatkowej końcowej kresce taktowej	!LO:TX:a:t=P:problem=w źródle znak segno na całej drugiej, dodatkowej końcowej kresce taktowej	!
!LO:TX:a:t=[segno]	!LO:TX:a:t=[segno]	!
=:|!	=:|!	=:|!
*-	*-	*-
!!!system-decoration: {(s1,s2)}
!!!RDF**kern: Z = marked note, color=grey
!!!RDF**kern: | = vertical stroke
!!!RDF**kern: > = above
!!!RDF**kern: < = below
!!!EED: Antoni Szymański
!!!EEV: 2021-06-25
!!!ENC: Tomasz Grochalski
!!!END: 2021-06-20
!!!YEC: Copyright 2022 Narodowy Instytut Fryderyka Chopina (https://polishscores.org)
!!!YEM: License CC-BY-4.0 (https://creativecommons.org/licenses/by/4.0)
